X:009
T:Boys of the Town (j)
B:NFID.229a
009boys_t
S:JMcK
L:1/8
M:6/8
R:jig
Q:320
K:G
f|ged B2A|BGE G2A|BdB ABA|GBd e2f|
ged B2A|BGE G2A|BdB AGA|BGG G2:|
B|def gfg|eaa eaa|bag e2d|efg efg|
def gfg|afd efg|edB AGA|BGG G2:|

%%%

